X:59
T:Bonny Kate
R:Reel
S:Seamus Quinn, Fermanagh (fiddle)
D:Tape of recital, Irvingstown, Fermanagh 1993
N:As played
H:Short version. He played this and then the Coleman setting
H:to show how tunes can develop.
Z:Bernie Stocks
M:4/4
K:D
A2dA BdAF | DFAF {G}EDEB | AFAd BGBd | cABc dcdB |
A2dA (3.B.c.dAF | DFAF ~E3B | AFAd BGBd | cABc defg ||
a2fd fafd | fafd +e3c3+f | g2{a}gf gbag |1 (3fgfec defg :|2 fdec d4 ||
<end>
<start>
